X:1
T:Ich wandelte unter den Bäumen
T:Ich wandelte unter den Bäumen
T:Joseph Rheinberger
T:Heinrich Heine
C:Rhein
Z:Heinrich Heine
%%score ( 1 2 ) { ( 3 4 ) | ( 5 6 ) }
L:1/8
Q:1/4=55
M:2/4
K:Gb
V:1 treble nm="Stimme\nVoice"
V:2 treble 
V:3 treble nm="Piano"
V:4 treble 
V:5 bass 
V:6 bass 
V:1
"^Andantino" z4 |:[Q:1/4=55]"^T" z2 z!p!"^espress." B | B e/ d/ d/c/ B/ A/ | G F z F | %4
w: |Ich|wan- del- te un- * ter den|Bäu- men mit|
w: |Wer|hat euch dies Wört- * lein ge-|leh- ret, ihr|
 FB/ A/ A/G/ F/E/ | F2 z!<(! B | Be/!<)! =d/!>(! d/=c/ B/A/ | =G!>)! F z F | =G/B/ A/ G/ G G/ G/ | %9
w: mei- * nem Gram _ al- *|lein, da|kam * das al- * te _|Träu- men, und|schlich _ mir ins Herz hin- *|
w: Vög- lein in luf- * ti- ger|Höh'? Schweigt|still! wenn mein Herz _ es _|hö- ret, dann|tut _ es noch ein- mal so|
"^smorz."[Q:1/4=55]"^T""^dim." (=G2 _G)[Q:1/4=53]"^T" F | (E/=D/) E/[Q:1/4=56]"^T" F/ =G D/- D/ | %11
w: ein, _ und|schlich _ mir ins Herz hin- *|
w: weh, _ dann|tut _ es noch ein- mal so|
[Q:1/4=48]"^T" E2 z2 :|[Q:1/4=55]"^T" z2 z!pp! d | d B/ G/ e e/ e/ |"^dolciss." d2 B B | %15
w: ein.|"Es|kam ein Jung- fräu- lein ge-|gan- gen, die|
w: weh!||||
 c c f3/2 e/ | d2 z d | d B/ G/ e e/ e/ | d2 B z/ B/ | B c c3/2 c/ | B2 z2 | z2 z!mf!!<(! B | %22
w: sang es im- mer|fort, da|ha- ben wir Vög- lein ge-|fan- gen das|hüb- sche, gold- ne|Wort."|Das|
w: |||||||
 B e/ d/!<)! d/c/ B/A/ |!>(! G F!>)! z F | F B/ A/ A/G/ F/E/ | F2 z!<(! B | %26
w: sollt ihr mir nicht * er- *|zäh- len, Ihr|Vög- lein so wun- * der- *|schlau! ihr|
w: ||||
 B e/ =d/!<)! d/=c/!>(! B/ A/ | =G F!>)! z2 | =G/B/ A/ G/ G G/ G/ | %29
w: wollt mei- nem Kum- * mer mir|steh- len,|ich * a- ber Nie- man- dem|
w: |||
[Q:1/4=55]"^T""^smorz.""^dim." (=G2 _GF) | %30
w: trau, _ _|
w: |
[Q:1/4=53]"^T" (E/=D/)"^rit." E/[Q:1/4=50]"^T" F/ =G[Q:1/4=48]"^T" D/ D/ | E2 z2 | !fermata!z4 |] %33
w: ich * a- ber Nie- man- dem|trau!||
w: |||
V:2
 x4 |: x4 | x4 | x4 | F B/ x3/2 F/ E/ | x4 | B e/ x5/2 | x4 | x3 =G/ x/ | x4 | x4 | x4 :| x4 | x4 | %14
 x4 | x4 | x4 | x4 | x4 | x4 | x4 | x4 | x4 | x4 | x4 | x4 | x4 | x4 | x4 | x4 | x4 | x4 | x4 |] %33
V:3
 z/!f! (b/a/=g/!>(! _g/f/e/c/)!>)! |: (c/4B/"_dim."=A/c/B/_A/G/F/G/4) | %2
 z/4!pp! (G,/B,/E/G/C/E/A/c/4) | z/4 (D/A,/C/D/C/A,/C/D/4) | z/4 (B,/=A,/B,/F/B,/A,/B,/E/4) | %5
 z/4 (=D/!<(!F/A/c/!<)!!>(!B/A/F/!>)!D/4) | z/4!p! (B,/E/=G/B/=C/E/A/=c/4) | %7
 z/4 (B,/=D/F/B/B,/D/F/B/4) | z/4 (B,/E/F/E/=B,/E/F/E/4) | z/4 (B,/E/F/E/=B,/E/F/E/4) | %10
 z/4 (E/=D/E/F/=G/E/D/F/4) | [=G,E]/ z/4 (b/a/=g/"_dim."_g/f/e/(c/4) :| c/4)(B/=A/B/f/g/B/_a/d/4) | %13
 z/4!pp! (d'/b/g/d/e'/c'/g/e/4) | z/4 (d'/b/g/d/g'/d'/b/g/4) | z/4 (f'/c'/a/f/e'/c'/g/e/4) | %16
 z/4!pp! (d'/c'/a/d/)(d'/c'/a/d/4) | z/4 (d'/b/g/d/)(e'/c'/g/e/4) | z/4 (d'/b/g/d/)(b/g/d/B/4) | %19
 z/4 (b/B/c'/c/d'/d/c'/c/4) | z/4"_cresc." (b/=a/_a/f/=d/c/B/=A/4) | %21
 z/4 (_A/F/=D/C/[I:staff +1]B,/A,/G,/F,/4) |[I:staff -1] z/4!p! (G,/B,/E/G/A,/C/E/A/4) | %23
 z/4!p! (D/A,/C/D/C/A,/C/D/4) | z/4 (B,/=A,/B,/F/B,/A,/B,/G/4) | %25
 z/4!<(! (=D/F/A/!<)!c/!>(!B/A/F/!>)!D/4) | z/4 (B,/=A,/B,/F/B,/A,/B,/G/4) | %27
 z/4 (B,/=A,/B,/F/B,/A,/B,/G/4) | z/4 (B,/E/F/E/=B,/E/F/E/4) | z/4 (=C/E/=G/=c/C/E/G/c/4) | %30
 z/4!<(! (E/=D/E/!<)!F/!>(!=G/E/D/!>)!F/4) |!pp! ([=G,E]/B,/E/=G/ [GB][=DF]/[DF]/) | [E=G]3 z |] %33
V:4
 z/ (B/A/=G/ _G/F/E/C/) |: x4 | x4 | x4 | x4 | x4 | x4 | x4 | x4 | x4 | x4 | x4 :| x4 | x4 | x4 | %15
 x4 | x4 | x4 | x4 | x4 | x4 | x4 | x4 | x4 | x4 | x4 | x4 | x4 | x4 | x4 | x4 | x2 A,>A, | %32
 =G,3 z |] %33
V:5
 x4 |: B,/=A,/C/B,/ _A,/G,/F,/G,/ | E,,/B,,/E,/G,/ C,/E,/A,/C/ | %3
!ped! D,,/A,,/C,/D,/ C,/A,,/C,/D,/!ped-up! | (B,,/=A,,/B,,/F,/) (B,,/A,,/B,,/E,/) | %5
 (=D,/F,/A,/C/ B,/A,/F,/D,/) | (B,,/E,/=G,/B,/) (=C,/E,/A,/=C/) | %7
 (B,,/=D,/F,/B,/) (B,,/D,/F,/B,/) | (B,,/E,/F,/E,/) (=B,,/E,/F,/E,/) | %9
 (=C,/E,/=G,/=C/) (C,/E,/F,/C/) | (=G,/F,/G,/A,/ B,/G,/F,/A,/) | E,,/ B/A/=G/ _G/F/E/(C/ :| %12
 (B,/)=A,/B,/F/[K:treble] G/B,/_A/D/) | z/ (g/d/B/) z/ (g/e/c/) | z/ (g/d/B/) z/ (b/g/d/) | %15
 z/ (a/f/c/) z/ (g/e/c/) | z/ (f/d/c/) z/ (f/d/c/) | z/ (g/d/B/) z/ (g/e/c/) | %18
 z/ (g/d/B/) z/ (d/B/G/) | (F/A/E/G/ F/A/E/G/) | ([=DFB]/=A/_A/F/[K:bass] =D/C/B,/=A,/) | %21
 (_A,/F,/=D,/C,/ B,,/A,,/G,,/F,,/) | z/ (B,,/E,/G,/) z/ (C,/E,/A,/) | %23
!ped! z/ (A,,/C,/D,/ C,/A,,/C,/D,/)!ped-up! | (B,,/=A,,/B,,/F,/) (B,,/A,,/B,,/G,/) | %25
 (=D,/F,/A,/C/) (B,/A,/F,/D,/) | (B,,/E,/=G,/B,/) (=C,/E,/A,/=C/) | %27
 (B,,/=D,/F,/B,/) (B,,/D,/F,/B,/) | (B,,/E,/F,/E,/) (=B,,/E,/F,/E,/) | %29
 (=C,/E,/=G,/=C/) (C,/E,/F,/C/) | (=G,/F,/"_rit."G,/A,/) (B,/G,/F,/A,/) | [E,,B,,]2 ([B,,,B,,]2 | %32
 !fermata![E,,,E,,]3) z |] %33
V:6
 x4 |: x4 | E,,2 A,,2 | D,,4 | =D,,2 E,,G,, | B,,4 | =G,,2 A,,2 | A,,4 | =G,,2 G,,2 | A,,3 =A,, | %10
 B,,4 | x4 :| x2[K:treble] x2 | G2 G2 | G2 G2 | G2 G2 | G2 G2 | G2 G2 | G2 G2 | x4 | %20
 x2[K:bass] x2 | x4 | E,,2 A,,2 | D,,4 | =D,,2 E,,2 | B,,4 | =G,,2 A,,2 | A,,4 | =G,,2 G,,2 | %29
 A,,3 =A,, | B,,3 B,,- | x4 | x4 |] %33

